X: 11421
T: Easter Island
R: reel
M: 4/4
K: Dmajor
|:f3 a f2ed|efdB BBf(e|e2) BA BBf(e|e2) BA BABc|
d2 BA BBfe|d2 BA A2 ed|f3ef a f/e/d|1 e2 ed effe:|2 e2 ed efdc||
|:d3 B AAAB|dAde f2 ed|f2 fe fa f/e/d|e3 d efdc|
d3 B AAAB|d2de f2 ed|f3e fa f/e/d|1 e3 d efdc:|2 e2 ed effe||

